X:1
T:Title
%%score { ( 1 4 ) | ( 2 3 ) }
L:1/8
Q:1/4=114
M:4/4
K:F
V:1 treble nm="Grand Piano"
V:4 treble 
V:2 bass 
V:3 bass 
V:1
 [FAc]2 [FAc]2 [FAc]2 [FAc]2 | [FAc]2 [Ac]2 [FAc]2 [Ac]2 | [FAc]2 [EBc]2 [FAc]2 [EGc]2 | %3
w: J.~Lincoln~Hall * * *|||
 [FAc]2 [Ac]2 [Ac]2 [Ac]2 | [Bd]2 [df]2 [ce]2 [Bd]2 | [Ac]4 [FA]4 | [G=B]2 [DFB]2 [CEc]2 [Fd]2 | %7
w: ||||
 [Ec]6 z2 | [FAc]2 [FAc]2 [FAc]2 [FAc]2 | [FAc]2 [Ac]2 [FAc]2 [Ac]2 | %10
w: |||
 [^FAd]2 [FAd]2 [GBd]2 [GBd]2 | [GBd]2 d2 d2 d2 | G2 G2 [_Ad]2 [Ad]2 | [Ad]4 [Ac]4 | %14
w: ||||
 [Ec]2 c2 c2 c2 |[M:11/8] [CBc]-[CBc]-[CBc]-[CBc]-[CBc]-[CBc]- [CBc]3 z2 | %16
w: ||
[M:12/8][Q:1/4=99] c3 A3 F3 D3 | z6 c6 | z6 [DAc]3 B3 | GAG DEF [B,EG]CD EFG | c3 A3 F3 D3 | %21
w: |||||
 z6 c6 |[M:13/8] d^cdfed=c=Bc [^Fd]3 [FA] | [GB][Ac][Bd][ce] [Bc]3 [Af]-[Af]-[Af]- [Af]3 |] %24
w: |||
V:2
 C,2 D,2 E,2 F,2 | z2[K:treble] F2 z2 F2 | F,2 G,2 A,2 B,2 | z2[K:treble] F2 F2 F2 | %4
 B,,2 [F,B,D]2 [F,B,D]2 [F,B,D]2 | C,2 F,2 F,2 F,2 | G,,2 G,2 G,2 [G,=B,]2 | C,2 G,2 G,2 G,2 | %8
 C,2 D,2 E,2 F,2 | z2[K:treble] F2 z2 F2 | D2 C2 B,2 A,2 | z2 [GB]2 [GB]2 [GB]2 | %12
 [B,,G,]4 [=B,,F,]4 | [C,F,A,]2 [C,F,]2 [C,F,A,]2 [C,F,]2 | z2[K:treble] F2 G2 A2 | %15
[M:11/8][K:bass] C,-C,-C,-C,-C,-C,- C,3 z2 |[M:12/8][K:treble] z FF z CC[K:bass] z A,A, z _A,A, | %17
 z6[K:treble] C6 | z DD z D[K:treble]D G,3 .[G,DG]3 | %19
 [G,=B,F][G,B,F][G,B,F][K:bass] [G,B,][G,B,D][G,B,D] C,C,D, E,F,G, | %20
 z FF z CC[K:bass] z A,A, z _A,A, | z6[K:treble] C6 | %22
[M:13/8] [B,DB][A,^CA][B,DB][DFd][=CEc][B,DB][A,CA][_A,=B,_A][=A,C=A][K:bass] [D,D]3 [D,D] | %23
 [G,D][G,D][G,D][C,C] [CE]3 [F,C]-[F,C]-[F,C]- [F,C]3 |] %24
V:3
 x8 | A,4[K:treble] C4 | x8 | C6[K:treble] z2 | x8 | x8 | x8 | x8 | x8 | A,4[K:treble] C4 | x8 | %11
 B,6 z2 | x8 | x8 | [C,,C,]8[K:treble] |[M:11/8][K:bass] x11 | %16
[M:12/8][K:treble] C3 A,3[K:bass] F,3 D,3 | [C,A,]D,E, F,G,A,[K:treble] z FF z FF | %18
 [D,A,]3 D,3[K:treble] z6 | x3[K:bass] x9 | C3 A,3[K:bass] F,3 D,3 | %21
 [C,A,]D,E, F,G,A,[K:treble] z FF z FF |[M:13/8] x9[K:bass] x4 | x13 |] %24
V:4
 x8 | x8 | x8 | x8 | x8 | z2 C2 C2 C2 | x8 | z2 C2 C2 C2 | x8 | x8 | x8 | x8 | x8 | z2 A,2 z2 A,2 | %14
 x8 |[M:11/8] x11 |[M:12/8] z AA z FF z CC z =B,B, | CDE FGA z AA z AA | [^Fd]3 .[DFA]3 z FF z DD | %19
 x12 | z AA z FF z CC z =B,B, | CDE FGA z AA z AA |[M:13/8] x13 | x13 |] %24

